;FLAVOR:RepRap
;TIME:803
;Filament used: 0.195238m
;Layer height: 0.1
;Generated with Cura_SteamEngine master
G21 ; set units to millimeters
G90 ; use absolute positioning
M82 ; absolute extrusion mode
G28 W ; home all without mesh bed level
G80 ; mesh bed leveling
M104 S220 ; set extruder temp
M140 S70 ; set bed temp
M190 S70 ; wait for bed temp
M109 S220 ; wait for extruder temp
G92 E0.0 ; reset extruder distance position
G1 Y-3.0 F1000.0 ; go outside print area
G1 X60.0 E9.0 F1000.0 ; intro line
G1 X100.0 E21.5 F1000.0 ; intro line
G92 E0.0 ; reset extruder distance position
;LAYER_COUNT:50
;LAYER:0
M107
G0 F3600 X91.339 Y91.313 Z0.15
;TYPE:WALL-INNER
G1 F1200 X91.373 Y91.288 E0.00082
G1 X91.422 Y91.267 E0.00186
G1 X91.474 Y91.256 E0.00289
G1 X108.526 Y91.256 E0.33468
G1 X108.578 Y91.267 E0.33571
G1 X108.627 Y91.288 E0.33675
G1 X108.661 Y91.313 E0.33757
G1 X108.698 Y91.355 E0.33866
G1 X108.723 Y91.399 E0.33964
G1 X108.741 Y91.454 E0.34077
G1 X108.75 Y91.534 E0.34234
G1 X108.75 Y108.467 E0.6718
G1 X108.743 Y108.534 E0.67311
G1 X108.726 Y108.59 E0.67425
G1 X108.673 Y108.67 E0.67612
G1 X108.609 Y108.717 E0.67767
G1 X108.568 Y108.734 E0.67853
G1 X108.519 Y108.744 E0.6795
G1 X91.474 Y108.744 E1.01115
G1 X91.422 Y108.733 E1.01218
G1 X91.373 Y108.712 E1.01322
G1 X91.339 Y108.687 E1.01404
G1 X91.302 Y108.645 E1.01513
G1 X91.277 Y108.601 E1.01612
G1 X91.259 Y108.546 E1.01724
G1 X91.25 Y108.466 E1.01881
G1 X91.25 Y91.534 E1.34826
G1 X91.259 Y91.454 E1.34982
G1 X91.277 Y91.399 E1.35095
G1 X91.302 Y91.355 E1.35193
G1 X91.339 Y91.313 E1.35302
G0 F3600 X90.95 Y91.52
G1 F1200 X90.964 Y91.391 E1.35555
G1 X91.001 Y91.277 E1.35788
G1 X91.059 Y91.176 E1.36015
G1 X91.135 Y91.091 E1.36236
G1 X91.224 Y91.026 E1.36451
G1 X91.327 Y90.981 E1.3667
G1 X91.445 Y90.956 E1.36904
G1 X108.555 Y90.956 E1.70196
G1 X108.673 Y90.981 E1.7043
G1 X108.776 Y91.026 E1.70649
G1 X108.865 Y91.091 E1.70863
G1 X108.941 Y91.176 E1.71085
G1 X108.999 Y91.277 E1.71312
G1 X109.036 Y91.391 E1.71545
G1 X109.05 Y91.52 E1.71797
G1 X109.05 Y108.48 E2.04797
G1 X109.038 Y108.593 E2.05018
G1 X109.003 Y108.71 E2.05256
G1 X108.948 Y108.81 E2.05478
G1 X108.878 Y108.892 E2.05687
G1 X108.757 Y108.981 E2.0598
G1 X108.657 Y109.022 E2.0619
G1 X108.553 Y109.044 E2.06397
G1 X91.445 Y109.044 E2.39684
G1 X91.327 Y109.019 E2.39919
G1 X91.224 Y108.974 E2.40138
G1 X91.135 Y108.909 E2.40352
G1 X91.059 Y108.824 E2.40574
G1 X91.001 Y108.723 E2.408
G1 X90.964 Y108.609 E2.41034
G1 X90.95 Y108.48 E2.41286
G1 X90.95 Y91.52 E2.74285
G0 F3600 X90.65 Y91.507
;TYPE:WALL-OUTER
G1 F1200 X90.669 Y91.328 E2.74636
G1 X90.726 Y91.153 E2.74994
G1 X90.813 Y91.002 E2.75333
G1 X90.934 Y90.867 E2.75686
G1 X91.074 Y90.765 E2.76023
G1 X91.236 Y90.693 E2.76368
G1 X91.413 Y90.656 E2.76719
G1 X108.587 Y90.656 E3.10135
G1 X108.764 Y90.693 E3.10487
G1 X108.926 Y90.765 E3.10832
G1 X109.066 Y90.867 E3.11169
G1 X109.187 Y91.002 E3.11522
G1 X109.274 Y91.153 E3.11861
G1 X109.331 Y91.328 E3.12219
G1 X109.35 Y91.507 E3.12569
G1 X109.35 Y108.493 E3.45619
G1 X109.333 Y108.654 E3.45934
G1 X109.281 Y108.826 E3.46284
G1 X109.196 Y108.982 E3.46629
G1 X109.081 Y109.115 E3.46972
G1 X108.907 Y109.243 E3.47392
G1 X108.743 Y109.311 E3.47737
G1 X108.587 Y109.344 E3.48048
G1 X91.413 Y109.344 E3.81463
G1 X91.236 Y109.307 E3.81815
G1 X91.074 Y109.235 E3.8216
G1 X90.934 Y109.133 E3.82497
G1 X90.813 Y108.998 E3.8285
G1 X90.726 Y108.847 E3.83189
G1 X90.669 Y108.672 E3.83547
G1 X90.65 Y108.493 E3.83897
G1 X90.65 Y91.507 E4.16947
G0 F3600 X90.665 Y91.358
G0 X91.061 Y91.411
G0 X91.421 Y91.421
;TYPE:SKIN
G1 F1200 X108.573 Y108.573 E4.64144
G1 X108.626 Y108.626
G0 F3600 X108.614 Y108.19
G1 F1200 X91.815 Y91.391 E5.10369
G1 X91.762 Y91.338
G0 F3600 X92.239 Y91.391
G1 F1200 X108.614 Y107.765 E5.55426
G1 X108.667 Y107.818
G0 F3600 X108.614 Y107.341
G1 F1200 X92.664 Y91.391 E5.99315
G1 X92.611 Y91.338
G0 F3600 X93.088 Y91.391
G1 F1200 X108.614 Y106.917 E6.42037
G1 X108.667 Y106.97
G0 F3600 X108.614 Y106.493
G1 F1200 X93.512 Y91.391 E6.83593
G1 X93.459 Y91.338
G0 F3600 X93.937 Y91.391
G1 F1200 X108.614 Y106.068 E7.23979
G1 X108.667 Y106.121
G0 F3600 X108.614 Y105.644
G1 F1200 X94.361 Y91.391 E7.63198
G1 X94.308 Y91.338
G0 F3600 X94.785 Y91.391
G1 F1200 X108.614 Y105.22 E8.01251
G1 X108.667 Y105.273
G0 F3600 X108.614 Y104.796
G1 F1200 X95.209 Y91.391 E8.38137
G1 X95.156 Y91.338
G0 F3600 X95.634 Y91.391
G1 F1200 X108.614 Y104.371 E8.73854
G1 X108.667 Y104.424
G0 F3600 X108.614 Y103.947
G1 F1200 X96.058 Y91.391 E9.08403
G1 X96.005 Y91.338
G0 F3600 X96.482 Y91.391
G1 F1200 X108.614 Y103.523 E9.41787
G1 X108.667 Y103.576
G0 F3600 X108.614 Y103.098
G1 F1200 X96.906 Y91.391 E9.74002
G1 X96.853 Y91.338
G0 F3600 X97.331 Y91.391
G1 F1200 X108.614 Y102.674 E10.05049
G1 X108.667 Y102.727
G0 F3600 X108.614 Y102.25
G1 F1200 X97.755 Y91.391 E10.34929
G1 X97.702 Y91.338
G0 F3600 X98.179 Y91.391
G1 F1200 X108.614 Y101.826 E10.63643
G1 X108.667 Y101.879
G0 F3600 X108.614 Y101.401
G1 F1200 X98.603 Y91.391 E10.91188
G1 X98.55 Y91.338
G0 F3600 X99.028 Y91.391
G1 F1200 X108.614 Y100.977 E11.17565
G1 X108.667 Y101.03
G0 F3600 X108.614 Y100.553
G1 F1200 X99.452 Y91.391 E11.42776
G1 X99.399 Y91.338
G0 F3600 X99.876 Y91.391
G1 F1200 X108.614 Y100.129 E11.6682
G1 X108.667 Y100.182
G0 F3600 X108.614 Y99.704
G1 F1200 X100.3 Y91.391 E11.89696
G1 X100.247 Y91.338
G0 F3600 X100.725 Y91.391
G1 F1200 X108.614 Y99.28 E12.11404
G1 X108.667 Y99.333
G0 F3600 X108.614 Y98.856
G1 F1200 X101.149 Y91.391 E12.31945
G1 X101.096 Y91.338
G0 F3600 X101.573 Y91.391
G1 F1200 X108.614 Y98.432 E12.5132
G1 X108.667 Y98.485
G0 F3600 X108.614 Y98.007
G1 F1200 X101.998 Y91.391 E12.69525
G1 X101.945 Y91.338
G0 F3600 X102.422 Y91.391
G1 F1200 X108.614 Y97.583 E12.86563
G1 X108.667 Y97.636
G0 F3600 X108.614 Y97.159
G1 F1200 X102.846 Y91.391 E13.02434
G1 X102.793 Y91.338
G0 F3600 X103.27 Y91.391
G1 F1200 X108.614 Y96.735 E13.17139
G1 X108.667 Y96.788
G0 F3600 X108.614 Y96.31
G1 F1200 X103.695 Y91.391 E13.30675
G1 X103.642 Y91.338
G0 F3600 X104.119 Y91.391
G1 F1200 X108.614 Y95.886 E13.43043
G1 X108.667 Y95.939
G0 F3600 X108.614 Y95.462
G1 F1200 X104.543 Y91.391 E13.54245
G1 X104.49 Y91.338
G0 F3600 X104.967 Y91.391
G1 F1200 X108.614 Y95.037 E13.64279
G1 X108.667 Y95.09
G0 F3600 X108.614 Y94.613
G1 F1200 X105.392 Y91.391 E13.73145
G1 X105.339 Y91.338
G0 F3600 X105.816 Y91.391
G1 F1200 X108.614 Y94.189 E13.80844
G1 X108.667 Y94.242
G0 F3600 X108.614 Y93.765
G1 F1200 X106.24 Y91.391 E13.87377
G1 X106.187 Y91.338
G0 F3600 X106.664 Y91.391
G1 F1200 X108.614 Y93.34 E13.92741
G1 X108.667 Y93.393
G0 F3600 X108.614 Y92.916
G1 F1200 X107.089 Y91.391 E13.96937
G1 X107.036 Y91.338
G0 F3600 X107.513 Y91.391
G1 F1200 X108.614 Y92.492 E13.99967
G1 X108.667 Y92.545
G0 F3600 X108.614 Y92.068
G1 F1200 X107.937 Y91.391 E14.0183
G1 X107.884 Y91.338
G0 F3600 X108.361 Y91.391
G1 F1200 X108.614 Y91.643 E14.02525
G0 F3600 X108.183 Y108.608
G1 F1200 X91.385 Y91.809 E14.48748
G1 X91.332 Y91.756
G0 F3600 X91.385 Y92.233
G1 F1200 X107.759 Y108.608 E14.93805
G1 X107.812 Y108.661
G0 F3600 X107.335 Y108.608
G1 F1200 X91.385 Y92.657 E15.37696
G1 X91.332 Y92.604
G0 F3600 X91.385 Y93.082
G1 F1200 X106.911 Y108.608 E15.80418
G1 X106.964 Y108.661
G0 F3600 X106.486 Y108.608
G1 F1200 X91.385 Y93.506 E16.21972
G1 X91.332 Y93.453
G0 F3600 X91.385 Y93.93
G1 F1200 X106.062 Y108.608 E16.6236
G1 X106.115 Y108.661
G0 F3600 X105.638 Y108.608
G1 F1200 X91.385 Y94.354 E17.01581
G1 X91.332 Y94.301
G0 F3600 X91.385 Y94.779
G1 F1200 X105.213 Y108.608 E17.39632
G1 X105.266 Y108.661
G0 F3600 X104.789 Y108.608
G1 F1200 X91.385 Y95.203 E17.76517
G1 X91.332 Y95.15
G0 F3600 X91.385 Y95.627
G1 F1200 X104.365 Y108.608 E18.12235
G1 X104.418 Y108.661
G0 F3600 X103.941 Y108.608
G1 F1200 X91.385 Y96.051 E18.46786
G1 X91.332 Y95.998
G0 F3600 X91.385 Y96.476
G1 F1200 X103.516 Y108.608 E18.80168
G1 X103.569 Y108.661
G0 F3600 X103.092 Y108.608
G1 F1200 X91.385 Y96.9 E19.12383
G1 X91.332 Y96.847
G0 F3600 X91.385 Y97.324
G1 F1200 X102.668 Y108.608 E19.43431
G1 X102.721 Y108.661
G0 F3600 X102.244 Y108.608
G1 F1200 X91.385 Y97.749 E19.73311
G1 X91.332 Y97.696
G0 F3600 X91.385 Y98.173
G1 F1200 X101.819 Y108.608 E20.02023
G1 X101.872 Y108.661
G0 F3600 X101.395 Y108.608
G1 F1200 X91.385 Y98.597 E20.29569
G1 X91.332 Y98.544
G0 F3600 X91.385 Y99.021
G1 F1200 X100.971 Y108.608 E20.55948
G1 X101.024 Y108.661
G0 F3600 X100.547 Y108.608
G1 F1200 X91.385 Y99.446 E20.81158
G1 X91.332 Y99.393
G0 F3600 X91.385 Y99.87
G1 F1200 X100.122 Y108.608 E21.05201
G1 X100.175 Y108.661
G0 F3600 X99.698 Y108.608
G1 F1200 X91.385 Y100.294 E21.28077
G1 X91.332 Y100.241
G0 F3600 X91.385 Y100.718
G1 F1200 X99.274 Y108.608 E21.49786
G1 X99.327 Y108.661
G0 F3600 X98.849 Y108.608
G1 F1200 X91.385 Y101.143 E21.70326
G1 X91.332 Y101.09
G0 F3600 X91.385 Y101.567
G1 F1200 X98.425 Y108.608 E21.89699
G1 X98.478 Y108.661
G0 F3600 X98.001 Y108.608
G1 F1200 X91.385 Y101.991 E22.07905
G1 X91.332 Y101.938
G0 F3600 X91.385 Y102.415
G1 F1200 X97.577 Y108.608 E22.24945
G1 X97.63 Y108.661
G0 F3600 X97.152 Y108.608
G1 F1200 X91.385 Y102.84 E22.40815
G1 X91.332 Y102.787
G0 F3600 X91.385 Y103.264
G1 F1200 X96.728 Y108.608 E22.55519
G1 X96.781 Y108.661
G0 F3600 X96.304 Y108.608
G1 F1200 X91.385 Y103.688 E22.69056
G1 X91.332 Y103.635
G0 F3600 X91.385 Y104.112
G1 F1200 X95.88 Y108.608 E22.81426
G1 X95.933 Y108.661
G0 F3600 X95.455 Y108.608
G1 F1200 X91.385 Y104.537 E22.92626
G1 X91.332 Y104.484
G0 F3600 X91.385 Y104.961
G1 F1200 X95.031 Y108.608 E23.0266
G1 X95.084 Y108.661
G0 F3600 X94.607 Y108.608
G1 F1200 X91.385 Y105.385 E23.11527
G1 X91.332 Y105.332
G0 F3600 X91.385 Y105.81
G1 F1200 X94.183 Y108.608 E23.19227
G1 X94.236 Y108.661
G0 F3600 X93.758 Y108.608
G1 F1200 X91.385 Y106.234 E23.25758
G1 X91.332 Y106.181
G0 F3600 X91.385 Y106.658
G1 F1200 X93.334 Y108.608 E23.31122
G1 X93.387 Y108.661
G0 F3600 X92.91 Y108.608
G1 F1200 X91.385 Y107.082 E23.3532
G1 X91.332 Y107.029
G0 F3600 X91.385 Y107.507
G1 F1200 X92.486 Y108.608 E23.38349
G1 X92.539 Y108.661
G0 F3600 X92.061 Y108.608
G1 F1200 X91.385 Y107.931 E23.40211
G1 X91.332 Y107.878
G0 F3600 X91.385 Y108.355
M104 S220
G1 F1200 X91.637 Y108.608 E23.40906
G0 F3600 X91.339 Y91.313
;TIME_ELAPSED:66.906382
;LAYER:1
M140 S70
M106 S51
G0 F5400 X91.339 Y91.313 Z0.25
;TYPE:WALL-INNER
G1 F1800 X91.373 Y91.288 E23.4096
G1 X91.422 Y91.267 E23.41029
G1 X91.474 Y91.256 E23.41098
G1 X108.526 Y91.256 E23.63217
G1 X108.578 Y91.267 E23.63286
G1 X108.627 Y91.288 E23.63355
G1 X108.661 Y91.313 E23.6341
G1 X108.698 Y91.355 E23.63483
G1 X108.723 Y91.399 E23.63548
G1 X108.741 Y91.454 E23.63624
G1 X108.75 Y91.534 E23.63728
G1 X108.75 Y108.466 E23.85691
G1 X108.741 Y108.546 E23.85796
G1 X108.723 Y108.601 E23.85871
G1 X108.698 Y108.645 E23.85936
G1 X108.661 Y108.687 E23.86009
G1 X108.627 Y108.712 E23.86064
G1 X108.578 Y108.733 E23.86133
G1 X108.526 Y108.744 E23.86202
G1 X91.474 Y108.744 E24.08321
G1 X91.422 Y108.733 E24.0839
G1 X91.373 Y108.712 E24.08459
G1 X91.339 Y108.687 E24.08514
G1 X91.302 Y108.645 E24.08586
G1 X91.277 Y108.601 E24.08652
G1 X91.259 Y108.546 E24.08727
G1 X91.25 Y108.466 E24.08831
G1 X91.25 Y91.534 E24.30795
G1 X91.259 Y91.454 E24.30899
G1 X91.277 Y91.399 E24.30974
G1 X91.302 Y91.355 E24.3104
G1 X91.339 Y91.313 E24.31112
G0 F5400 X90.95 Y91.52
G1 F1800 X90.964 Y91.391 E24.31281
G1 X91.001 Y91.277 E24.31436
G1 X91.059 Y91.176 E24.31587
G1 X91.135 Y91.091 E24.31735
G1 X91.224 Y91.026 E24.31878
G1 X91.327 Y90.981 E24.32024
G1 X91.445 Y90.956 E24.3218
G1 X108.555 Y90.956 E24.54374
G1 X108.673 Y90.981 E24.54531
G1 X108.776 Y91.026 E24.54677
G1 X108.865 Y91.091 E24.5482
G1 X108.941 Y91.176 E24.54968
G1 X108.999 Y91.277 E24.55119
G1 X109.036 Y91.391 E24.55274
G1 X109.05 Y91.52 E24.55442
G1 X109.05 Y108.48 E24.77442
G1 X109.036 Y108.609 E24.7761
G1 X108.999 Y108.723 E24.77766
G1 X108.941 Y108.824 E24.77917
G1 X108.865 Y108.909 E24.78065
G1 X108.776 Y108.974 E24.78208
G1 X108.673 Y109.019 E24.78354
G1 X108.555 Y109.044 E24.7851
G1 X91.445 Y109.044 E25.00704
G1 X91.327 Y109.019 E25.00861
G1 X91.224 Y108.974 E25.01006
G1 X91.135 Y108.909 E25.01149
G1 X91.059 Y108.824 E25.01297
G1 X91.001 Y108.723 E25.01448
G1 X90.964 Y108.609 E25.01604
G1 X90.95 Y108.48 E25.01772
G1 X90.95 Y91.52 E25.23772
G0 F5400 X90.65 Y91.507
;TYPE:WALL-OUTER
G1 F1200 X90.669 Y91.328 E25.24005
G1 X90.726 Y91.153 E25.24244
G1 X90.813 Y91.002 E25.2447
G1 X90.934 Y90.867 E25.24705
G1 X91.074 Y90.765 E25.2493
G1 X91.236 Y90.693 E25.2516
G1 X91.413 Y90.656 E25.25394
G1 X108.587 Y90.656 E25.47672
G1 X108.764 Y90.693 E25.47906
G1 X108.926 Y90.765 E25.48136
G1 X109.066 Y90.867 E25.48361
G1 X109.187 Y91.002 E25.48596
G1 X109.274 Y91.153 E25.48822
G1 X109.331 Y91.328 E25.49061
G1 X109.35 Y91.507 E25.49294
G1 X109.35 Y108.493 E25.71327
G1 X109.331 Y108.672 E25.71561
G1 X109.274 Y108.847 E25.718
G1 X109.187 Y108.998 E25.72026
G1 X109.066 Y109.133 E25.72261
G1 X108.926 Y109.235 E25.72486
G1 X108.764 Y109.307 E25.72716
G1 X108.587 Y109.344 E25.7295
G1 X91.413 Y109.344 E25.95227
G1 X91.236 Y109.307 E25.95462
G1 X91.074 Y109.235 E25.95692
G1 X90.934 Y109.133 E25.95916
G1 X90.813 Y108.998 E25.96152
G1 X90.726 Y108.847 E25.96378
G1 X90.669 Y108.672 E25.96616
G1 X90.65 Y108.493 E25.9685
G1 X90.65 Y91.507 E26.18883
G0 F5400 X90.665 Y91.358
G0 X91.061 Y91.411
G0 X91.399 Y91.457
G0 X91.429 Y91.427
G1 F1200 X91.638 Y91.643 E26.19403
;TYPE:SKIN
G1 X91.332 Y91.95
G0 F5400 X91.385 Y92.321
G1 F1200 X92.315 Y91.39 E26.2111
G1 X92.368 Y91.337
G0 F5400 X92.739 Y91.39
G1 F1200 X91.385 Y92.745 E26.23595
G1 X91.332 Y92.798
G0 F5400 X91.385 Y93.169
G1 F1200 X93.164 Y91.39 E26.26858
G1 X93.217 Y91.337
G0 F5400 X93.588 Y91.39
G1 F1200 X91.385 Y93.594 E26.309
G1 X91.332 Y93.647
G0 F5400 X91.385 Y94.018
G1 F1200 X94.012 Y91.39 E26.3572
G1 X94.065 Y91.337
G0 F5400 X94.436 Y91.39
G1 F1200 X91.385 Y94.442 E26.41318
G1 X91.332 Y94.495
G0 F5400 X91.385 Y94.866
G1 F1200 X94.861 Y91.39 E26.47695
G1 X94.914 Y91.337
G0 F5400 X95.285 Y91.39
G1 F1200 X91.385 Y95.291 E26.5485
G1 X91.332 Y95.344
G0 F5400 X91.385 Y95.715
G1 F1200 X95.709 Y91.39 E26.62783
G1 X95.762 Y91.337
G0 F5400 X96.133 Y91.39
G1 F1200 X91.385 Y96.139 E26.71494
G1 X91.332 Y96.192
G0 F5400 X91.385 Y96.563
G1 F1200 X96.558 Y91.39 E26.80983
G1 X96.611 Y91.337
G0 F5400 X96.982 Y91.39
G1 F1200 X91.385 Y96.988 E26.91252
G1 X91.332 Y97.041
G0 F5400 X91.385 Y97.412
G1 F1200 X97.406 Y91.39 E27.02298
G1 X97.459 Y91.337
G0 F5400 X97.831 Y91.39
G1 F1200 X91.385 Y97.836 E27.14123
G1 X91.332 Y97.889
G0 F5400 X91.385 Y98.26
G1 F1200 X98.255 Y91.39 E27.26725
G1 X98.308 Y91.337
G0 F5400 X98.679 Y91.39
G1 F1200 X91.385 Y98.685 E27.40106
G1 X91.332 Y98.738
G0 F5400 X91.385 Y99.109
G1 F1200 X99.103 Y91.39 E27.54266
G1 X99.156 Y91.337
G0 F5400 X99.528 Y91.39
G1 F1200 X91.385 Y99.533 E27.69203
G1 X91.332 Y99.586
G0 F5400 X91.385 Y99.958
G1 F1200 X99.952 Y91.39 E27.8492
G1 X100.005 Y91.337
G0 F5400 X100.376 Y91.39
G1 F1200 X91.385 Y100.382 E28.01414
G1 X91.332 Y100.435
G0 F5400 X91.385 Y100.806
G1 F1200 X100.8 Y91.39 E28.18687
G1 X100.853 Y91.337
G0 F5400 X101.225 Y91.39
G1 F1200 X91.385 Y101.23 E28.36737
G1 X91.332 Y101.283
G0 F5400 X91.385 Y101.655
G1 F1200 X101.649 Y91.39 E28.55567
G1 X101.702 Y91.337
G0 F5400 X102.073 Y91.39
G1 F1200 X91.385 Y102.079 E28.75175
G1 X91.332 Y102.132
G0 F5400 X91.385 Y102.503
G1 F1200 X102.497 Y91.39 E28.9556
G1 X102.55 Y91.337
G0 F5400 X102.922 Y91.39
G1 F1200 X91.385 Y102.927 E29.16724
G1 X91.332 Y102.98
G0 F5400 X91.385 Y103.352
G1 F1200 X103.346 Y91.39 E29.38666
G1 X103.399 Y91.337
G0 F5400 X103.77 Y91.39
G1 F1200 X91.385 Y103.776 E29.61387
G1 X91.332 Y103.829
G0 F5400 X91.385 Y104.2
G1 F1200 X104.195 Y91.39 E29.84886
G1 X104.248 Y91.337
G0 F5400 X104.619 Y91.39
G1 F1200 X91.385 Y104.624 E30.09163
G1 X91.332 Y104.677
G0 F5400 X91.385 Y105.049
G1 F1200 X105.043 Y91.39 E30.34219
G1 X105.096 Y91.337
G0 F5400 X105.467 Y91.39
G1 F1200 X91.385 Y105.473 E30.60052
G1 X91.332 Y105.526
G0 F5400 X91.385 Y105.897
G1 F1200 X105.892 Y91.39 E30.86664
G1 X105.945 Y91.337
G0 F5400 X106.316 Y91.39
G1 F1200 X91.385 Y106.321 E31.14054
G1 X91.332 Y106.374
G0 F5400 X91.385 Y106.746
